assets/images/twitter.svg

<?xml version="1.0" ?><svg height="500" id="svg2" version="1.1" width="500" xmlns="http://www.w3.org/2000/svg" xmlns:cc="http://creativecommons.org/ns#" xmlns:dc="http://purl.org/dc/elements/1.1/" xmlns:inkscape="http://www.inkscape.org/namespaces/inkscape" xmlns:rdf="http://www.w3.org/1999/02/22-rdf-syntax-ns#" xmlns:sodipodi="http://sodipodi.sourceforge.net/DTD/sodipodi-0.dtd" xmlns:svg="http://www.w3.org/2000/svg"><defs id="defs4"/><g id="layer1" transform="translate(0,-552.36218)"><path d="m 0,552.36216 0,500.00004 500,0 0,-500.00004 z" id="rect2989-1" style="fill:#55acee;fill-opacity:1;stroke:none"/><g id="layer1-9" transform="translate(-549.00515,80.294372)"/><g id="layer1-6" transform="translate(-575.71429,39.999999)"/><g id="layer1-93" transform="matrix(0.99928945,0,0,0.99928945,474.7002,-40.81928)"/><path d="M 500,154.44196 500,500 174.28572,500 50.000001,375.71428 l 8.660713,2.45536 112.053576,-4.59821 -56.62947,-56.62947 3.26261,-28.61239 L 88.392859,259.375 360,154.28571 438.99833,93.440288 z" id="path2998" style="fill:#000000;stroke:none;stroke-width:1px;stroke-linecap:butt;stroke-linejoin:miter;stroke-opacity:1;opacity:0.3" transform="translate(0,552.36218)"/><path d="M 324.8125 87.5 C 280.47401 88.623491 244.90625 124.91422 244.90625 169.53125 C 244.90625 175.95409 245.59527 182.2332 247 188.25 C 178.79291 184.82343 118.32141 152.15314 77.84375 102.5 C 70.779413 114.61489 66.71875 128.72697 66.71875 143.78125 C 66.71875 172.24959 81.228858 197.34923 103.25 212.0625 C 89.803471 211.63215 77.12993 207.92802 66.0625 201.78125 C 66.056504 202.12227 66.0625 202.49461 66.0625 202.84375 C 66.0625 242.59877 94.359878 275.72975 131.90625 283.28125 C 125.0206 285.14882 117.76781 286.15625 110.28125 286.15625 C 104.98707 286.15625 99.853708 285.65377 94.84375 284.6875 C 105.29403 317.28886 135.56258 341.02981 171.46875 341.6875 C 143.38204 363.70054 108.04958 376.8125 69.59375 376.8125 C 62.976056 376.8125 56.422813 376.45077 50 375.6875 C 86.328399 398.98354 129.44102 412.5625 175.78125 412.5625 C 326.73815 412.5625 409.28125 287.51178 409.28125 179.0625 C 409.28125 175.506 409.2166 171.93029 409.0625 168.40625 C 425.09118 156.85975 439.00567 142.39655 450 125.9375 C 435.29487 132.47403 419.48018 136.90183 402.875 138.875 C 419.82932 128.72513 432.83826 112.64792 438.96875 93.46875 C 423.1106 102.87971 405.54384 109.71981 386.84375 113.40625 C 371.87879 97.45878 350.54204 87.5 326.9375 87.5 C 326.22942 87.5 325.51628 87.482113 324.8125 87.5 z " id="rect2989" style="fill:#ffffff;fill-opacity:1;stroke:none" transform="translate(0,552.36218)"/></g></svg>

<?xml version="1.0" encoding="UTF-8"?>
<svg version="1.1" viewBox="0 0 500 500" xmlns="http://www.w3.org/2000/svg">
    <g transform="translate(0 -552.36)">
        <path d="m0 552.36v500h500v-500z" fill="#55acee"/>
        <path transform="translate(0 552.36)" d="m500 154.44v345.56h-325.71l-124.29-124.29 8.6607 2.4554 112.05-4.5982-56.629-56.629 3.2626-28.612-28.955-28.955 271.61-105.09 78.998-60.845z" opacity=".3"/>
        <path transform="translate(0 552.36)" d="m324.81 87.5c-44.338 1.1235-79.906 37.414-79.906 82.031 0 6.4228 0.68902 12.702 2.0938 18.719-68.207-3.4266-128.68-36.097-169.16-85.75-7.0643 12.115-11.125 26.227-11.125 41.281 0 28.468 14.51 53.568 36.531 68.281-13.447-0.43035-26.12-4.1345-37.188-10.281-0.005996 0.34102 0 0.71336 0 1.0625 0 39.755 28.297 72.886 65.844 80.438-6.8856 1.8676-14.138 2.875-21.625 2.875-5.2942 0-10.428-0.50248-15.438-1.4688 10.45 32.601 40.719 56.342 76.625 57-28.087 22.013-63.419 35.125-101.88 35.125-6.6177 0-13.171-0.36173-19.594-1.125 36.328 23.296 79.441 36.875 125.78 36.875 150.96 0 233.5-125.05 233.5-233.5 0-3.5565-0.06465-7.1322-0.21875-10.656 16.029-11.546 29.943-26.01 40.938-42.469-14.705 6.5365-30.52 10.964-47.125 12.938 16.954-10.15 29.963-26.227 36.094-45.406-15.858 9.411-33.425 16.251-52.125 19.938-14.965-15.947-36.302-25.906-59.906-25.906-0.70808 0-1.4212-0.017887-2.125 0z" fill="#fff"/>
    </g>
</svg>
